X: 30
T:Sourwood Mountain
G:dance song
B:Richard Chase: American Folk Tales and Songs
M:C
R:Reel
L:1/4
Q:1/2=120
K:Eb
% lydian/major/mixolydian pentatonic
G<B B/B/B|c e    BG |B>B Bc/c/|G/G/ F/F/ E2 |
GG  G   E|F E/E/ CB,|E>E Ec/c/|B/B/ G/F/ E2|]

